X:318
T:Gaelic Air
D:Wick S.C.D., The Sound of the North (1970)
O:Scotland
Z:Nigel Gatherer
L:1/8
M:4/4
K:A mixolydian
e|A>AAB e2 dB|A2 GA BAAB|d>dde d2 BA|G>GGA GE D>E|
GGGG g2 g>f|edeg edBd|e2 a>g e2 d>B|A2 e>d BAA:|
<end>
<start>
